!!!!SEGMENT: pl-cz--iii-50--016_brykner-jerzy--vesperae-beati-omnes.krn
!!!cenid: 17xx:858
!!!COM: Brykner, Jerzy
!!!COM-rismID: pe30025739
!!!CDT: 1705-1760
!!!CNT: Polish
!!!OPR: Vesperae
!!!OTL: Beati omnes
!!!OMV: 016
!!!PDT:
!!!AGN: Sacred; Vespers
!!!SMS-siglum: PL-CZ
!!!SMS-shelfmark: III-50
!!!SMS-shelfwork: 001-016 M
!!!SMS-variant:
!!!SMS-altvar:
!!!NIFC-rismSourceID: 300033583
!!!NIFC-islandoraID: pl-cz:38729
!!!URL-pdf-islandora: https://repozytorium.nifc.pl/islandora/object/pl-cz%3A38729/datastream/PDF/view
!!!URL-scan:
!!!ONB-nifc: UWAGA: części Vesperae: Dixit Dominus, Confitebor, Beatus vir, Laudate pueri,
!!!AIN: 1 empty 1 organ 2 violn 1 vox
!!!key:
**kern	**fba	**kern	**kern	**kern	**text	**kern	**text
*part5	*	*part4	*part3	*part2	*part2	*part1	*part1
*	*	*group2	*group2	*group1	*	*group1	*
*staff5	*	*staff4	*staff3	*staff2	*staff2	*staff1	*staff1
*Iorgan	*	*Ivioln	*Ivioln	*Iempty	*	*Ivox	*
*I"Organo.	*	*I"Violino Secundo.	*I"Violino Primo.	*I"Baſso.	*	*I"Canto.~	*
*I'org	*	*I'vl 2	*I'vl 1	*I'B	*	*I'S	*
*clefF4	*	*clefG2	*clefG2	*clefF4	*	*clefC1	*
*k[]	*	*k[]	*k[]	*k[]	*	*k[]	*
*a:	*	*a:	*a:	*a:	*	*a:	*
*M4/4	*	*M4/4	*M4/4	*M4/4	*	*M4/4	*
*met(c)	*	*met(c)	*met(c)	*met(c)	*	*met(c)	*
=1	=1	=1	=1	=1	=1	=1	=1
*	*	*all\right	*	*	*	*	*
!LO:TX:a:t=T.	!	!	!	!	!	!	!
!LO:TX:b:t=Beati omnes.	!	!	!	!	!	!	!
!LO:TX:a:t=P:problem=mixed beam	!	!LO:TX:b:t=Beati omnes.	!LO:TX:b:t=Beati omnes.	!	!	!	!
8AA/L	.	16cc\LL	16ee\LL	8r	.	8r	.
.	.	16ee\	16aa\	.	.	.	.
8A\	.	16aa\	16ccc\	8A\	BE-	8ee\	BE-
.	.	16ee\JJ	16aa\JJ	.	.	.	.
8d\	.	16dd\LL	16gg\LL	8d\	-a-	8ff\	-a-
.	.	16ff\	16aa\	.	.	.	.
8G\J	.	16b\	16dd\	16c\LL	-ti	16ee\LL	-ti
.	.	16dd\JJ	16gg\JJ	16B\JJ	.	16dd\JJ	.
8c\L	.	16cc\LL	16ee\LL	8c\	om-	8ee\	om-
.	.	16ee\	16gg\	.	.	.	.
8A\	.	16a\	16cc\	16B\	-nes	16dd\	-nes,
.	.	16cc\JJ	16ee\JJ	16A\	qui	16cc\	qui
8B\	7	16dd/LL	16dd\LL	8B\	ti-	8dd\	ti-
.	.	16b/	16bb\	.	.	.	.
8E\J	7 #	16e/	16gg#X\	8E\	-me(n)t	16cc\LL	-ment
.	.	16b/JJ	16dd\JJ	.	.	16b\JJ	.
=2	=2	=2	=2	=2	=2	=2	=2
!LO:TX:a:t=P:problem=mixed beam	!	!	!	!	!	!	!
8A\L	.	16cc/LL	16ee\LL	8.A\	Do-	8.cc\	Do-
.	.	16a/	16cc\	.	.	.	.
8AA/	.	16e/	16a\	.	.	.	.
.	.	16c/JJ	16e\JJ	16AA/	-mi-	16b\	-mi-
8C/	.	8A/L	8A/L	4AA/	-nu(m),	8a\	-nu(m),
8AA/J	.	8e/J	8e/J	.	.	8e/	qui
8E\L	#	8.dd\L	8.dd\L	8r	.	8.dd\	am-
8E\	.	.	.	8E\	qui	.	.
.	.	16cc\Jk	16cc\Jk	.	.	16cc\	-bu-
8E\	7	16b\LL	16b\LL	8.d\	am-	8b\	-la(n)t
.	.	16dd\	16gg#X\	.	.	.	.
8E\J	.	16dd\	16gg#\	.	.	16b\	in
.	.	16dd\JJ	16gg#\JJ	16c\	-bu-	16a\	man-
=3	=3	=3	=3	=3	=3	=3	=3
8E\L	.	16dd\LL	16gg\LL	8B\	-lant	16g#X\LL	-da-
.	.	16cc\	16ff\JJ	.	.	16a\JJ	.
8G#X\	6 5	16b\	4ee\	4G#X\	in	4b\	.
.	.	16cc\JJ	.	.	.	.	.
8G#\	.	8dd\L	.	.	.	.	.
8A\J	.	8cc\J	8aa\	(8A\	vi-	8a\	-tis
!	!	!	!LO:LB:g=original	!	!	!	!
8E\L	#	8b/L	8b\L	8E\)	.	8g#X\	e-
!	!	!	!	!	!	!LO:TX:b:t=P:problem=podwójny przecinek jako łamanie sylab między systemami	!
!	!	!	!	!	!	!LO:LB:g=original	!
8F\	.	16cc/L	8aa\	8F\	-is	4a\	.
.	.	16a/JJ	.	.	.	.	.
8D\	6 5	4bt/	8b\	8D\L	e-	.	.
8E\J	#	.	8gg#X\J	8E\J	.	8g#X\	.
!	!	!LO:LB:g=original	!	!	!	!	!
=4	=4	=4	=4	=4	=4	=4	=4
!LO:TX:a:t=Solo	!	!LO:TX:a:t=P:problem=mixed beam	!LO:TX:a:t=P:problem=mixed beam	!	!	!	!
8AA/L	.	8a/L	8a/L	4AA/	-jus.	4a\	-jus.
8AA/	.	8aa\J	8aa\J	.	.	.	.
!	!	!LO:TX:a:t=P:problem=mixed beam	!	!	!	!	!
8AA/	.	16gg\LL	16ggn\LL	4r	.	4r	.
.	.	16a/	16a\	.	.	.	.
8AA/J	.	16ff\	16ff\	.	.	.	.
.	.	16a/JJ	16a\JJ	.	.	.	.
!	!	!LO:TX:a:t=P:problem=mixed beam	!LO:TX:a:t=P:problem=mixed beam	!	!	!	!
8AA/L	.	16ee\LL	16ee\LL	2r	.	2r	.
.	.	16aa\	16aa\	.	.	.	.
8C/	6	16a/	16a/	.	.	.	.
.	.	16b/JJ	16b/JJ	.	.	.	.
8D/	6 5	4b/	4bt/	.	.	.	.
8E/J	#	.	.	.	.	.	.
!	!	!	!	!LO:LB:g=original	!	!	!
=5	=5	=5	=5	=5	=5	=5	=5
4A\	.	4a/	4a/	8r	.	8r	.
.	.	.	.	8c\	La-	8ee\	La-
4F#X\	7	4r	4r	8c\	-bo-	8ee\	-bo-
.	6	.	.	8B\	-res	8dd\	-res
!LO:LB:g=original	!	!	!	!	!	!	!
4G#X\	6 5	2r	2r	16B\	ma-	16dd\	ma-
.	.	.	.	16A\	-nu-	16cc\	-nu-
.	.	.	.	16B\	-u(m)	16dd\	-u(m)
.	.	.	.	16G#X\	tu-	16b\	tu-
4A\	.	.	.	8A\	-a-	8cc\	-a-
.	.	.	.	8A\	-rum	8a\	-rum,
=6	=6	=6	=6	=6	=6	=6	=6
4F\	6	1r	1r	16A\	qui-	4r	.
.	.	.	.	16A\	-a	.	.
.	.	.	.	16d\	man-	.	.
.	.	.	.	16A\	-du-	.	.
4G\	.	.	.	8B\	-ca-	16r	.
.	.	.	.	.	.	16dd\	be-
.	.	.	.	8G\	-bis.	16gg\	-a-
.	.	.	.	.	.	16dd\	-tus
8c\L	.	.	.	2r	.	16ee\	es,
.	.	.	.	.	.	16ff\	et
8B\	.	.	.	.	.	16dd\	be-
.	.	.	.	.	.	16ee\	-ne
8A\	.	.	.	.	.	8cc\	ti-
8F\J	.	.	.	.	.	16b\LL	-bi
.	.	.	.	.	.	16a\JJ	.
=7	=7	=7	=7-	=7	=7	=7	=7
4G\	4	2r	2r	2r	.	(4cc\	e-
4GG/	3	.	.	.	.	4b\)	.
!	!	!	!	!	!	!LO:TX:b:t=P:problem=podwójny przecinek jako łamanie sylab między systemami	!
!LO:TX:a:t=P:problem=mixed beam	!	!	!	!	!	!LO:LB:g=original	!
8C/L	.	8r	8r	16C/LL	U-	4cc\	-rit,
.	.	.	.	16D/JJ	.	.	.
8c\	.	16ccc\LL	16ccc\LL	16E\LL	-xor	.	.
.	.	16cc\JJ	16cc\JJ	16F\JJ	.	.	.
8B\	.	16bb-X\LL	16bb-X\LL	8G\	tu-	4r	.
.	.	16cc\	16cc\	.	.	.	.
8c\J	.	16aa\	16aa\	8c\	-a	.	.
.	.	16cc\JJ	16cc\JJ	.	.	.	.
=8	=8	=8	=8	=8	=8	=8	=8
4G\	.	16gg\LL	16gg\LL	8c\	ſi-	8dd\	in
.	.	16ccc\	16ccc\	.	.	.	.
.	.	16cc\	16cc\	16B\LL	-cut	8dd\	la-
.	.	(16dd\JJ	16dd\JJ	16A\JJ	.	.	.
*	*	*	*	*custos:B	*	*	*
!	!	!	!	!LO:LB:g=original	!	!	!
4C/	.	4ddT\	4ddT\	8B\	vi-	8ee\	-te-
.	.	.	.	16c\	-tis	16ee\	-ri-
.	.	.	.	16B\	a-	16ee\	-b(us)
8F#X\L	6	4cc\)	4cc\	8A\L	.	8dd\	do-
8G\	.	.	.	8G\J	.	16cc\LL	-mûs
.	.	.	.	.	.	16b\JJ	.
8A\	.	4r	4r	8A\L	-bun-	4cc\	tu-
8D\J	#	.	.	8D\J	.	.	.
!	!	!	!LO:LB:g=original	!	!	!	!
=9	=9	=9	=9	=9	=9	=9	=9
4G\	.	0r	0r	4G\	-dans,	8b\	-ae
.	.	.	.	.	.	8.dd\L	fi-
8F#X\L	6	.	.	4r	.	.	.
.	.	.	.	.	.	16cc\Jk	.
8D\J	.	.	.	.	.	16b\	-li-
.	.	.	.	.	.	16a\	-i
4E\	.	.	.	2r	.	8g\	tu-
.	.	.	.	.	.	8g\	-i
8A\L	.	.	.	.	.	[4cc\	ſi-
8G\J	.	.	.	.	.	.	.
=10	=10	=10	=10	=10	=10	=10	=10
8F#X\L	6	.	.	8A\	in	8cc\]	.
8D\J	.	.	.	16G\LL	cir-	16b,\	-cut
.	.	.	.	16F#X\JJ	.	16a\	no-
8G\L	.	.	.	8G\	-cu-	8b\	-vel-
8C\J	.	.	.	16E\	-i-	16a\LL	-lae
.	.	.	.	16E\	-tu	16g\JJ	.
8D\L	#	.	.	8D\	me(n)-	8f#X/	o-
8G\J	.	.	.	8G\	-ſae	16g\LL	-li-
.	.	.	.	.	.	16cc\JJ	.
4D\	4	.	.	4D\	tu-	4a\	-va-
.	#	.	.	.	.	.	.
=11	=11	=11	=11	=11	=11	=11	=11
!LO:TX:a:t=P:problem=zbędny takt w vl 1	!	!LO:TX:a:t=P:problem=zbędny takt w vl 1	!LO:TX:a:t=P:problem=zbędny takt	!LO:TX:a:t=P:problem=zbędny takt w vl 1	!	!LO:TX:a:t=P:problem=zbędny takt w vl 1	!
1ryy	.	1ryy	1r	1ryy	.	1ryy	.
=12	=12	=12	=12	=12	=12	=12	=12
4GG/	.	8r	8r	4GG/	-ae.	4g\	-rum.
!	!	!LO:LB:g=original	!	!	!	!	!
!	!	!LO:TX:a:t=P:problem=mixed beam	!LO:TX:a:t=P:problem=mixed beam	!	!	!	!
.	.	16gg\LL	16gg\LL	.	.	.	.
.	.	16g/JJ	16g/JJ	.	.	.	.
!	!	!	!LO:TX:a:t=P:problem=mixed beam	!	!	!	!
4BB/	6	16ff/LL	16ff\LL	4r	.	4r	.
.	.	16g/	16g/	.	.	.	.
.	.	16ee/	16ee\	.	.	.	.
.	.	16g/JJ	16g/JJ	.	.	.	.
!LO:TX:a:t=P:problem=mixed beam	!	!LO:TX:a:t=P:problem=mixed beam	!LO:TX:a:t=P:problem=mixed beam	!	!	!	!
8E\L	.	16dd\LL	16dd\LL	2r	.	2r	.
.	.	16gg\	16gg\	.	.	.	.
8C\	.	16g/	16g/	.	.	.	.
.	.	16a/JJ	16a/JJ	.	.	.	.
8D\	#	4a/	4aT/	.	.	.	.
8DD/J	.	.	.	.	.	.	.
!LO:LB:g=original	!	!	!	!	!	!LO:LB:g=original	!
=13	=13	=13	=13	=13	=13	=13	=13
!LO:TX:a:t=P:problem=mixed beam	!	!LO:TX:a:t=P:problem=mixed beam	!LO:TX:a:t=P:problem=mixed beam	!	!	!	!
8GG/L	.	8g/L	8g/L	8G\	Ec-	8dd\	Ec-
!LO:TX:a:t=T.	!	!	!	!	!	!	!
8G\	.	16gg\L	16bb\L	16G\	-ce	16dd\	-ce
.	.	16gg\JJ	16bb\JJ	16G\	sic	16dd\	ſic
8c\	.	16gg\LL	16ccc\LL	8c\	be-	8ee\	be-
.	.	16gg\	16ccc\	.	.	.	.
8G\J	.	16gg\	16bb\	16G\	-ne-	16dd\	-ne-
.	.	16gg\JJ	16bb\JJ	16G\	-di-	16dd\	-di-
!	!	!	!	!LO:TX:b:t=P:problem=podwójny przecinek jako łamanie sylab między systemami	!	!	!
!	!	!	!	!LO:LB:g=original	!	!	!
8E\L	6	16gg\LL	16ccc\LL	8E\	-ce-	8ee\	-ce-
.	.	16gg\	16ccc\	.	.	.	.
8C\	.	16gg\	16ccc\	8C/	-tur	8ee\	-tur
.	.	16gg\JJ	16ccc\JJ	.	.	.	.
8E\	#	16ee\LL	16gg#X\LL	8E\	ho-	8b\	ho-
.	.	16ee\	16gg#\	.	.	.	.
8E\J	.	16ee\	16gg#\	16E\	-mo,	16b\	-mo,
.	.	16ee\JJ	16gg#\JJ	16E\	qui	16b\	qui
=14	=14	=14	=14	=14	=14	=14	=14
8A\L	.	16ee\LL	16aa\LL	8A\	ti-	8cc\	ti-
.	.	16ee\	16aa\	.	.	.	.
8E\J	#	16ee\	16gg#X\	8E\	-met	8b\	-met
.	.	16ee\JJ	16gg#\JJ	.	.	.	.
8C/L	6	8ee\L	8aa\L	8C/	Do-	8cc\	Do-
8AA/J	.	8ee\J	8aa\J	16AA/	-mi-	16cc\	-mi-
.	.	.	.	16AA/	-num,	16cc\	-num,
8A\L	.	16r	16r	8r	.	8r	.
.	.	16cc\LL	16ee\LL	.	.	.	.
8A\	.	16cc\	16ee\	16A\	Be-	16cc\	be-
.	.	16cc\JJ	16ee\JJ	16A\	-ne-	16cc\	-ne-
8F\	6	16ff\LL	16aa\LL	16F\	-di-	16dd\	-di-
.	.	16ff\	16aa\	16F\	-cat	16dd\	-cat
8G\J	.	16dd\	16gg#\	16G\	ti-	16b\	ti-
.	.	16dd\JJ	16gg#\JJ	16G\	-bi	16b\	-bi
!	!	!	!LO:LB:g=original	!	!	!	!
=15	=15	=15	=15	=15	=15	=15	=15
8E\L	6	16ee\LL	16gg\LL	16E\	Do-	16cc\	Do-
.	.	16ee\	16gg\	16E\	-mi-	16cc\	-mi-
8F\	.	16cc\	16ff\	16F\	-n(us)	16a\	-n(us)
.	.	16cc\JJ	16ff\JJ	16F\	ex	16a\	ex
*	*	*custos:dd	*	*	*	*	*
!	!	!LO:LB:g=original	!	!	!	!	!
8D\	-6	16dd\LL	16ff\LL	8D\L	Si-	4b-X\	Si-
.	.	16dd\	16ff\	.	.	.	.
8E\J	.	16cc\	16gg\	8E\J	.	.	.
.	.	16cc\JJ	16gg\JJ	.	.	.	.
*	*	*	*	*	*	*custos:a	*
!LO:TX:a:t=P:problem=mixed beam	!	!	!	!	!	!LO:LB:g=original	!
8F\L	.	8cc\L	8aa\L	8F\	-on,	8a\	-on,
8F\	.	8cc\J	8aa\J	8F\	et	8ff\	ut
8c\	.	16ee\LL	16gg\LL	8c\	vi-	8ee\	vi-
.	.	16ff\	16aa\	.	.	.	.
8C/J	.	16ee\	16gg\	16C/	-de-	16dd\	-de-
.	.	16ff\JJ	16aa\JJ	16C/	-as	16cc\	-as
!	!	!	!	!LO:LB:g=original	!	!	!
=16	=16	=16	=16	=16	=16	=16	=16
8G\L	-	8gg\L	8bb-X\L	8G\	bo-	8b-X\	bo-
8A\J	.	8ff\J	8ff\J	16A\	-na	16cc\	-na
.	.	.	.	16A\	Je-	16cc\	Je-
!LO:TX:a:t=P:problem=mixed beam	!	!	!	!	!	!	!
8.B-X\L	.	8.ff\L	8.bb-\L	8.B-X\	-ru-	8.dd\	-ru-
!LO:SIC:v:s=BB-	!	!	!	!	!	!	!
16BB/Jk	.	16ff\Jk	16bb-\Jk	16BB-X/	-sa-	16dd\	-sa-
!LO:SIC:v:s=BB-	!	!	!	!	!	!	!
4BB/	.	4ff\	8.bb-\L	4BB-/	-lem	8dd\	-le(m)
.	.	.	.	.	.	16dd\	om-
.	.	.	16aa\Jk	.	.	16cc\	-ni-
8r	.	8r	8gg\L	8r	.	8b-X\	-b(us)
16G\LL	-	8dd\	[8gg\J	16G\	om-	8b-\	di-
16F\JJ	.	.	.	16F\	-ni-	.	.
=17	=17	=17	=17	=17	=17	=17	=17
!	!	!	!	!	!	!LO:SIC:v:s=b-	!
8E\L	6 -5	8cc\L	8gg\L]	8E\	-bus	8b\L	-e-
8F\	.	8cc\	16aa\L	8F\	di-	8a\J	.
.	.	.	16gg\JJ	.	.	.	.
8D\	6 5	8b-X\	8ff\L	8D\	-e-	8a\L	-bus
8E\J	.	8b-\J	16gg\L	8E\	-bus	8g\J	.
.	.	.	16ff\JJ	.	.	.	.
8C/L	6 5	8a/L	8ee\	8C/	vi-	8g\	vi-
8D/	.	8a/J	4ff\	8D/	-tae	8f/	-tae
8BB-X/	6 5	4g/	.	8BB-X/L	tu-	8f/L	tu-
8C/J	.	.	8ee\	8C/J	.	8e/J	.
*custos:FF	*	*	*	*	*	*	*
!LO:LB:g=original	!	!	!	!	!	!	!
=18	=18	=18	=18	=18	=18	=18	=18
!LO:TX:a:t=S.	!	!LO:TX:a:t=P:problem=mixed beam	!	!	!	!	!
8FF/L	.	8a/L	8ff\L	4FF/	-ae,	4f/	-ae.
8FF/	.	16ff\L	8ff\J	.	.	.	.
.	.	16f/JJ	.	.	.	.	.
!	!	!	!LO:TX:a:t=P:problem=mixed beam	!	!	!	!
8FF/	.	16ee/LL	16ee-X\LL	4r	.	4r	.
.	.	16f/	16f/	.	.	.	.
8FF/J	.	16dd/	16dd\	.	.	.	.
.	.	16f/JJ	16f/JJ	.	.	.	.
!	!	!	!LO:PB:g=original	!	!	!	!
!	!	!LO:TX:a:t=P:problem=mixed beam	!LO:TX:a:t=P:problem=mixed beam	!	!	!	!
8FF/L	.	16cc\LL	16cc\LL	2r	.	2r	.
.	.	16ff\	16ff\	.	.	.	.
8AA/	6	16f/	16f/	.	.	.	.
.	.	16g/JJ	16g/JJ	.	.	.	.
8BB-X/	.	4g/	4gT/	.	.	.	.
8C/J	.	.	.	.	.	.	.
=19	=19	=19	=19	=19	=19	=19	=19
!LO:TX:a:t=P:problem=mixed beam	!	!LO:TX:a:t=P:problem=mixed beam	!LO:TX:a:t=P:problem=mixed beam	!	!	!LO:TX:a:t=4	!
8FF/L	.	8f/L	8f/L	8r	.	00r	.
8F\	.	8cc\	8aa\J	8F\	Et	.	.
8F\	-4 2	8dd\	4ggT\	8.B-X\	vi-	.	.
8E\J	.	8cc\J	.	.	.	.	.
.	.	.	.	16A\	-de-	.	.
8F\L	.	4cc\	4ff\	8A\	-as	.	.
8D\	.	.	.	16d\	fi-	.	.
.	.	.	.	16c\	-li-	.	.
*	*	*custos:f	*	*custos:B-	*	*	*
!	!	!	!	!LO:TX:b:t=P:problem=podwójny przecinek jako łamanie sylab między systemami	!	!	!
!	!	!LO:LB:g=original	!	!LO:LB:g=original	!	!	!
8G\	-	8r	8r	8B-X\	-os	.	.
8F\J	.	8f/	[8dd\	16A\	fi-	.	.
.	.	.	.	16A\	-li-	.	.
=20	=20	=20	=20	=20	=20	=20	=20
8E\L	6 5	8g/L	8dd\L]	8G\	-o-	.	.
8F\J	.	8a/J	8cc\	16C/	-ru(m)	.	.
.	.	.	.	16C/	tu-	.	.
4D\	6\	4f/	8cc\	4F\	-o-	.	.
.	.	.	8b\J	.	.	.	.
!	!	!LO:TX:a:t=P:problem=mixed beam	!	!	!	!	!
4C/	.	8g/L	8cc\L	4E\	-rum,	.	.
.	.	16gg\L	16gg\L	.	.	.	.
.	.	16ff\JJ	16ff\JJ	.	.	.	.
4E\	.	16ee\LL	16ee\LL	4r	.	.	.
.	.	16gg\	16gg\	.	.	.	.
.	.	16cc\	16cc\	.	.	.	.
.	.	16ee\JJ	16ee\JJ	.	.	.	.
=21	=21	=21	=21	=21	=21	=21	=21
4F\	.	8a/	8a/	8r	.	.	.
.	.	8r	8r	16c\LL	pa-	.	.
.	.	.	.	16B-X\JJ	.	.	.
4FF/	.	8a/	8cc\	16A\LL	.	.	.
.	.	.	.	16c\	.	.	.
.	.	8r	8r	16F\	.	.	.
.	.	.	.	16A\JJ	.	.	.
!	!	!	!	!LO:TX:a:t=P:problem=mixed beam	!	!	!
4GG/	.	8g/	8b\	8D/L	.	.	.
.	.	8r	8r	16d\L	.	.	.
.	.	.	.	16c\JJ	.	.	.
4BB/	6	8g/	8dd\	16B-\LL	.	.	.
.	.	.	.	16d\	.	.	.
.	.	8r	8r	16G\	.	.	.
.	.	.	.	16B-\JJ	.	.	.
=22	=22	=22	=22	=22	=22	=22	=22
4C/	.	8e/	8g/	16E\LL	.	.	.
.	.	.	.	16G\	.	.	.
.	.	8r	8r	16A\	.	.	.
.	.	.	.	16B\JJ	.	.	.
4E\	6	8cc\	8gg\	8c\	.	.	.
.	.	8r	8r	8B,\	-cem	.	.
!	!	!	!LO:LB:g=original	!	!	!	!
4F\	.	8cc\L	8aa\L	16A\LL	Su-	.	.
.	.	.	.	16B\JJ	.	.	.
.	.	8cc\	8dd\J	16c\LL	-per	.	.
.	.	.	.	16F\JJ	.	.	.
4G\	.	8cc\	16dd\LL	8.G\	Is-	.	.
.	.	.	16ee\	.	.	.	.
.	.	8b\J	16ff\	.	.	.	.
.	.	.	16gg\JJ	16G\	-ra-	.	.
!	!	!	!	!LO:LB:g=original	!	!	!
=23	=23	=23	=23	=23	=23	=23	=23
4C/	.	8cc\	8ee\	4C/	-el.	8r	.
.	.	8r	8r	.	.	4g\	Glo-
4E\	.	8g/	8cc\	4r	.	.	.
.	.	8r	8r	.	.	16a\	-ri-
.	.	.	.	.	.	16b-X\	-a
!	!	!LO:LB:g=original	!	!	!	!LO:LB:g=original	!
4F\	.	8f/	8cc\	2r	.	8a\	Pa-
.	.	8r	8r	.	.	16bn\	-tri,
.	.	.	.	.	.	16cc\	et
4G\	.	8d/	8b\	.	.	8.b\	Fi-
.	.	8r	8r	.	.	.	.
.	.	.	.	.	.	16b\	-li-
=24	=24	=24	=24	=24	=24	=24	=24
!	!	!	!	!LO:TX:a:t=1.	!	!	!
4C/	.	8e/	8cc\	1r	.	8cc\	-o,
.	.	8r	8r	.	.	4ee\	et
4F#X\	7	8a/	8a/	.	.	.	.
.	6	8r	8r	.	.	16dd\LL	ſpi-
.	.	.	.	.	.	16cc\JJ	.
4G#X\	6 5	8e/	8b/	.	.	16b\	-ri-
.	.	.	.	.	.	16cc\	-tu-
!	!	!	!	!	!	!LO:N:vis=16	!
.	.	8r	8r	.	.	8b\	-i
4A\	.	8c/	8e/	.	.	16a\LL	San-
.	.	.	.	.	.	16b\	.
.	.	8r	8r	.	.	16cc\	.
.	.	.	.	.	.	16dd\JJ	.
!LO:LB:g=original	!	!	!	!	!	!	!
=25	=25	=25	=25	=25	=25	=25	=25
4Gn\	6	8e/	8b/	2r	.	16ee\LL	.
.	.	.	.	.	.	16b\JJ	.
.	.	8r	8r	.	.	4ee\	.
4F\	7	8a/	8a/	.	.	.	.
.	6	8r	8r	.	.	8dd\	.
4E\	#	4g#X/	4b/	4r	.	4ee,\	-cto,
!LO:TX:a:t=T.	!	!	!	!	!	!	!
8A\L	.	8ee\L	8aa\L	8A\	Si-	8ee\	ſi-
8A\J	.	8ee\J	8aa\J	8A\	-cut	8ee\	-cut
=26	=26	=26	=26	=26	=26	=26	=26
8d\L	.	8ff\L	8aa\L	8d\	e-	8ff\	e-
8c\	.	8ee\J	8aa\	8c\	-rat	8ee\	-rat
8d\	.	8ff\L	8aa\	8d\	in	8ff\	in
8B\J	.	16ee\L	8aa\J	16c\LL	prin-	16ee\LL	prin-
.	.	16dd\JJ	.	16B\JJ	.	16dd\JJ	.
8c\L	5	8ee\L	8aa\L	8c\	-ci-	8ee\	-ci-
8B\	.	8dd\J	8aa\	8B\	-pi-	8dd\	-pi-
8c\	6	8ee\L	8aa\	8c\	-o,	8ee\	-o,
8A\J	.	16dd\L	8aa\J	16B\LL	et	16dd\LL	et
.	.	16cc\JJ	.	16A\JJ	.	16cc\JJ	.
*	*	*custos:dd	*	*	*	*	*
!	!	!LO:LB:g=original	!LO:LB:g=original	!	!	!	!
=27	=27	=27	=27	=27	=27	=27	=27
8B\L	7	8dd\L	8aa\L	8B\	nunc,	8dd\	nu(n)c,
8A\	.	8cc\J	8aa\	8A\	et	8cc\	et
!	!	!	!	!	!	!LO:LB:g=original	!
8B\	6	8dd\L	8aa\	8B\L	ſem-	4dd\	ſe(m)-
8E\J	.	16cc\L	8gg#X\J	8E\J	.	.	.
.	.	16b\JJ	.	.	.	.	.
!	!	!	!LO:TX:a:t=P:problem=mixed beam	!	!	!	!
4A\	.	8cc/L	8aa\L	4A\	-per,	4cc\	-per,
.	.	8a/J	8e/J	.	.	.	.
[<4E\|	.	8e/	8e/	4r	.	8r	.
.	.	8r	8r	.	.	16ee\	et
.	.	.	.	.	.	16ee\	in
=28	=28	=28	=28	=28	=28	=28	=28
*2\right	*	*	*	*	*	*	*
2E\]|	.	8f#X/	8f#X/	2r	.	8dd\	ſae-
.	.	8r	8r	.	.	16e/	-cu-
.	.	.	.	.	.	16e/	-la
.	.	8g#X/	8g#X/	.	.	8dd\	ſae-
.	.	8r	8r	.	.	16cc\LL	-cu-
.	.	.	.	.	.	16b\JJ	.
[>2AA/|	.	8a/	8a/	4r	.	8cc\	-lo-
.	.	8r	8r	.	.	8a\	-rum.
.	.	8a/	8a/	8A\	Et	4r	.
.	.	8r	8r	8A\	in	.	.
*	*	*	*	*custos:G	*	*	*
!	!	!	!	!LO:LB:g=original	!	!	!
=29	=29	=29	=29	=29	=29	=29	=29
2AA/]|	.	8b/	8b/	8G\	ſae-	2r	.
.	.	8r	8r	16AA/	-cu-	.	.
.	.	.	.	16AA/	-la	.	.
.	.	8cc#X\	8cc#X\	8G\	ſae-	.	.
.	.	8r	8r	16F\LL	-cu-	.	.
.	.	.	.	16E\JJ	.	.	.
4D/|	.	8dd\	8dd\	8F\	-lo-	4r	.
.	.	8r	8r	8D\	-rum	.	.
8d\L	.	16aa\LL	16ddd\LL	16r	.	[<4ff\	A-
.	.	16aa\	16ddd\	16d\LL	a-	.	.
8d\J	.	16aa\	16ddd\	16c\	.	.	.
.	.	16aa\JJ	16ccc\JJ	16d\JJ	.	.	.
=30	=30	=30	=30	=30	=30	=30	=30
8G\L	7	16gg\LL	16bb\LL	4B\	-men,	16ff\LL]	.
.	.	16gg\	16bb\	.	.	16dd\	.
8G\	.	16gg\	16dd\	.	.	16b\	.
.	.	16gg\JJ	16dd\JJ	.	.	16dd\JJ	.
8c\	7	16gg\LL	16ee\LL	16r	.	[4ee\	.
*	*	*	*	*	*ij	*	*
.	.	16gg\	16ee\	16c\LL	a-	.	.
8c\J	.	16gg\	16ccc\	16B\	.	.	.
.	.	16gg\JJ	16ccc\JJ	16c\JJ	.	.	.
*	*	*custos:ff	*	*	*	*	*
!LO:LB:g=original	!	!LO:LB:g=original	!	!	!	!	!
8F\L	7	16ff\LL	16aa\LL	4A\	-men,	16ee\LL]	.
*	*	*	*custos:aa	*	*	*	*
!	!	!	!LO:LB:g=original	!	!	!	!
.	.	16ff\	16aa\	.	.	16cc\	.
8F\	.	16ff\	16cc\	.	.	16a\	.
.	.	16ff\JJ	16cc\JJ	.	.	16cc\JJ	.
8B\	7	16ff\LL	16dd\LL	16r	.	[4dd\	.
.	.	16ff\	16dd\	16B\LL	a-	.	.
8B\J	.	16ff\	16aa\	16A\	.	.	.
.	.	16ff\JJ	16aa\JJ	16B\JJ	.	.	.
=31	=31	=31	=31	=31	=31	=31	=31
8E\L	7 #	16ee\LL	16gg#X\LL	4G#X\	-men,	16dd\LL]	.
*	*	*	*	*	*Xij	*	*
.	.	16ee\	16gg#\	.	.	16b\	.
8E\	.	16ee\	16b\	.	.	16g#X\	.
.	.	16ee\JJ	16b\JJ	.	.	16b\JJ	.
8A\	.	16ee\LL	8cc\L	8r	.	4.cc\	.
.	.	16ee\	.	.	.	.	.
8G\J	.	16ee\	8aa\J	16A\LL	a-	.	.
.	.	16ee\JJ	.	16G#\JJ	.	.	.
8F\L	.	8ee\L	8aa\L	8F\L	.	.	.
8C\	6	8ee\	8aa\	8C\	.	16b\LL	.
.	.	.	.	.	.	16a\JJ	.
8D\	6 5	8ff\	8aa\	8D\	.	4b\	.
8E\J	#	8ee\J	8gg#X\J	8E\J	.	.	.
=32	=32	=32	=32	=32	=32	=32	=32
4AA/	.	4ee\	4aa\	4AA/	-men	4a\	-men
*	*	*	*	*	*ij	*	*ij
4E\	#	4ee\	4gg#X\	4E\	a-	4b\	a-
4AA/	#	4ee\	4aa\	4AA/	-men	4cc#X\	-men
*	*	*	*	*	*Xij	*	*Xij
4r	.	4r	4r	4r	.	4r	.
==	==	==;;	==	==	==	==	==
*-	*-	*-	*-	*-	*-	*-	*-
!!!system-decoration: [g1][g2]s5
!!!RDF**kern: > = above
!!!RDF**kern: < = below
!!!RDF**kern: | = vertical stroke
!!!ENC: Marta Lawrence
!!!END: 2020-12-31
!!!ENC: Marcin Jachim
!!!END: 2020-07-02
